X: 16342
T: Guiry's
R: reel
M: 4/4
K: Cmajor
c2cG ECEG|c2cA Bcde|c/c/c cG EFGE|Addc BcdB|
c2cG ECEG|c2cA Bcde|c/c/c cG EFGE|Addc Bcdf||
ecgc acgc|ecgc efgf|ecgc acgc|eaag abag|
ecgc acgc|ecgc efga|gefd ecdB|cAGE DddB||

